static/images/portrait.svg

<svg width="264px" height="280px" viewBox="0 0 264 280" version="1.1" xmlns="http://www.w3.org/2000/svg" xmlns:xlink="http://www.w3.org/1999/xlink"><desc>Created with getavataaars.com</desc><defs><circle id="react-path-1" cx="120" cy="120" r="120"></circle><path d="M12,160 C12,226.27417 65.72583,280 132,280 C198.27417,280 252,226.27417 252,160 L264,160 L264,-1.42108547e-14 L-3.19744231e-14,-1.42108547e-14 L-3.19744231e-14,160 L12,160 Z" id="react-path-2"></path><path d="M124,144.610951 L124,163 L128,163 L128,163 C167.764502,163 200,195.235498 200,235 L200,244 L0,244 L0,235 C-4.86974701e-15,195.235498 32.235498,163 72,163 L72,163 L76,163 L76,144.610951 C58.7626345,136.422372 46.3722246,119.687011 44.3051388,99.8812385 C38.4803105,99.0577866 34,94.0521096 34,88 L34,74 C34,68.0540074 38.3245733,63.1180731 44,62.1659169 L44,56 L44,56 C44,25.072054 69.072054,5.68137151e-15 100,0 L100,0 L100,0 C130.927946,-5.68137151e-15 156,25.072054 156,56 L156,62.1659169 C161.675427,63.1180731 166,68.0540074 166,74 L166,88 C166,94.0521096 161.51969,99.0577866 155.694861,99.8812385 C153.627775,119.687011 141.237365,136.422372 124,144.610951 Z" id="react-path-3"></path></defs><g id="Avataaar" stroke="none" stroke-width="1" fill="none" fill-rule="evenodd"><g transform="translate(-825.000000, -1100.000000)" id="Avataaar/Circle"><g transform="translate(825.000000, 1100.000000)"><g id="Mask"></g><g id="Avataaar" stroke-width="1" fill-rule="evenodd" mask="url(#react-mask-5)"><g id="Body" transform="translate(32.000000, 36.000000)"><mask id="react-mask-6" fill="white"><use xlink:href="#react-path-3"></use></mask><use fill="#D0C6AC" xlink:href="#react-path-3"></use><g id="Skin/👶🏽-03-Brown" mask="url(#react-mask-6)" fill="#FFDBB4"><g transform="translate(0.000000, 0.000000)" id="Color"><rect x="0" y="0" width="264" height="280"></rect></g></g><path d="M156,79 L156,102 C156,132.927946 130.927946,158 100,158 C69.072054,158 44,132.927946 44,102 L44,79 L44,94 C44,124.927946 69.072054,150 100,150 C130.927946,150 156,124.927946 156,94 L156,79 Z" id="Neck-Shadow" fill-opacity="0.100000001" fill="#000000" mask="url(#react-mask-6)"></path></g><g id="Clothing/Hoodie" transform="translate(0.000000, 170.000000)"><defs><path d="M108,13.0708856 C90.0813006,15.075938 76.2798424,20.5518341 76.004203,34.6449676 C50.1464329,45.5680933 32,71.1646257 32,100.999485 L32,100.999485 L32,110 L232,110 L232,100.999485 C232,71.1646257 213.853567,45.5680933 187.995797,34.6449832 C187.720158,20.5518341 173.918699,15.075938 156,13.0708856 L156,32 L156,32 C156,45.254834 145.254834,56 132,56 L132,56 C118.745166,56 108,45.254834 108,32 L108,13.0708856 Z" id="react-path-75"></path></defs><mask id="react-mask-76" fill="white"><use xlink:href="#react-path-75"></use></mask><use id="Hoodie" fill="#B7C1DB" fill-rule="evenodd" xlink:href="#react-path-75"></use><g id="Color/Palette/Gray-01" mask="url(#react-mask-76)" fill-rule="evenodd" fill="#25557C"><rect id="🖍Color" x="0" y="0" width="264" height="110"></rect></g><path d="M102,61.7390531 L102,110 L95,110 L95,58.1502625 C97.2037542,59.4600576 99.5467694,60.6607878 102,61.7390531 Z M169,58.1502625 L169,98.5 C169,100.432997 167.432997,102 165.5,102 C163.567003,102 162,100.432997 162,98.5 L162,61.7390531 C164.453231,60.6607878 166.796246,59.4600576 169,58.1502625 Z" id="Straps" fill="#F4F4F4" fill-rule="evenodd" mask="url(#react-mask-76)"></path><path d="M90.9601329,12.7243537 C75.9093095,15.5711782 65.5,21.2428847 65.5,32.3076923 C65.5,52.0200095 98.5376807,68 132,68 C165.462319,68 198.5,52.0200095 198.5,32.3076923 C198.5,21.2428847 188.09069,15.5711782 173.039867,12.7243537 C182.124921,16.0744598 188,21.7060546 188,31.0769231 C188,51.4689754 160.178795,68 132,68 C103.821205,68 76,51.4689754 76,31.0769231 C76,21.7060546 81.8750795,16.0744598 90.9601329,12.7243537 Z" id="Shadow" fill-opacity="0.16" fill="#000000" fill-rule="evenodd" mask="url(#react-mask-76)"></path></g><g id="Face" transform="translate(76.000000, 82.000000)" fill="#000000"><g id="Mouth/Default" transform="translate(2.000000, 52.000000)" fill-opacity="0.699999988"><path d="M40,15 C40,22.7319865 46.2680135,29 54,29 L54,29 C61.7319865,29 68,22.7319865 68,15" id="Mouth"></path></g><g id="Nose/Default" transform="translate(28.000000, 40.000000)" fill-opacity="0.16"><path d="M16,8 C16,12.418278 21.372583,16 28,16 L28,16 C34.627417,16 40,12.418278 40,8" id="Nose"></path></g><g id="Eyes/Default-😀" transform="translate(0.000000, 8.000000)" fill-opacity="0.599999964"><circle id="Eye" cx="30" cy="22" r="6"></circle><circle id="Eye" cx="82" cy="22" r="6"></circle></g><g id="Eyebrow/Outline/Default" fill-opacity="0.599999964"><g id="I-Browse" transform="translate(12.000000, 6.000000)"><path d="M3.63024536,11.1585767 C7.54515501,5.64986673 18.2779197,2.56083721 27.5230268,4.83118046 C28.5957248,5.0946055 29.6788665,4.43856013 29.9422916,3.36586212 C30.2057166,2.2931641 29.5496712,1.21002236 28.4769732,0.94659732 C17.7403633,-1.69001789 5.31209962,1.88699832 0.369754639,8.84142326 C-0.270109626,9.74178291 -0.0589363917,10.9903811 0.84142326,11.6302454 C1.74178291,12.2701096 2.9903811,12.0589364 3.63024536,11.1585767 Z" id="Eyebrow" fill-rule="nonzero"></path><path d="M61.6302454,11.1585767 C65.545155,5.64986673 76.2779197,2.56083721 85.5230268,4.83118046 C86.5957248,5.0946055 87.6788665,4.43856013 87.9422916,3.36586212 C88.2057166,2.2931641 87.5496712,1.21002236 86.4769732,0.94659732 C75.7403633,-1.69001789 63.3120996,1.88699832 58.3697546,8.84142326 C57.7298904,9.74178291 57.9410636,10.9903811 58.8414233,11.6302454 C59.7417829,12.2701096 60.9903811,12.0589364 61.6302454,11.1585767 Z" id="Eyebrow" fill-rule="nonzero" transform="translate(73.000154, 6.039198) scale(-1, 1) translate(-73.000154, -6.039198) "></path></g></g></g><g id="Top" stroke-width="1" fill-rule="evenodd"><defs><rect id="react-path-49" x="0" y="0" width="264" height="280"></rect><path d="M183.679824,38.9488198 C189.086072,33.9985622 190.387393,23.9615454 187.317704,17.4493246 C183.549263,9.45385312 175.901319,8.45217737 168.572342,11.9686703 C161.664469,15.2835661 155.515175,16.3878671 147.950196,14.7817319 C140.691624,13.2406923 133.805566,10.5226172 126.303388,10.0762471 C113.978028,9.34292483 102.003367,13.914565 93.6031232,23.1292512 C92.0003538,24.8871655 90.7089493,26.8971594 89.4882796,28.9343872 C88.5115454,30.5644351 87.4105298,32.3133822 86.9950459,34.1921885 C86.7973853,35.0855929 87.165272,37.2898774 86.7203704,38.0218712 C86.2391099,38.8123183 84.4244668,39.5373375 83.6510124,40.1238625 C82.0842713,41.3125222 80.7267597,42.6539573 79.4713836,44.1710842 C76.8052796,47.3926541 75.3376994,50.7577001 74.1034777,54.7428152 C70.0005333,67.9877849 69.6528094,83.7412616 74.9569218,96.7467724 C75.6639385,98.4811062 77.8550622,102.098564 79.1431613,98.3847912 C79.3976741,97.6508047 78.8086588,95.1907873 78.8099809,94.4501584 C78.8146084,91.7300906 80.3160587,73.7213568 86.857084,63.6330196 C88.9862338,60.3491948 98.8298903,48.0522456 100.840541,47.9536058 C101.9058,49.6464245 112.720532,60.4624529 140.783385,59.1948919 C153.445253,58.6229725 163.18265,52.9341181 165.520833,50.4680909 C166.549375,56.0008881 178.51323,64.2839965 180.33625,67.6921976 C185.602529,77.5376948 186.770677,97.9957204 188.780988,97.9573368 C190.791299,97.9189532 192.234429,92.7197798 192.647929,91.7270713 C195.719601,84.351669 196.242509,75.0948338 195.914948,67.1684434 C195.487565,56.9663626 191.276535,45.9419513 183.679824,38.9488198 Z" id="react-path-48"></path><filter x="-0.8%" y="-2.0%" width="101.5%" height="108.0%" filterUnits="objectBoundingBox" id="react-filter-45"><feOffset dx="0" dy="2" in="SourceAlpha" result="shadowOffsetOuter1"></feOffset><feColorMatrix values="0 0 0 0 0   0 0 0 0 0   0 0 0 0 0  0 0 0 0.16 0" type="matrix" in="shadowOffsetOuter1" result="shadowMatrixOuter1"></feColorMatrix><feMerge><feMergeNode in="shadowMatrixOuter1"></feMergeNode><feMergeNode in="SourceGraphic"></feMergeNode></feMerge></filter></defs><mask id="react-mask-47" fill="white"><use xlink:href="#react-path-49"></use></mask><g id="Mask"></g><g id="Top/Short-Hair/Short-Waved" mask="url(#react-mask-47)"><g transform="translate(-1.000000, 0.000000)"><mask id="react-mask-46" fill="white"><use xlink:href="#react-path-48"></use></mask><use id="Short-Hair" stroke="none" fill="#28354B" fill-rule="evenodd" xlink:href="#react-path-48"></use><g id="Skin/👶🏽-03-Brown" mask="url(#react-mask-46)" fill="#A55728"><g transform="translate(0.000000, 0.000000) " id="Color"><rect x="0" y="0" width="264" height="280"></rect></g></g></g></g></g></g></g></g></g></svg>

<svg xmlns="http://www.w3.org/2000/svg" xmlns:xlink="http://www.w3.org/1999/xlink" width="264" height="280" xmlns:v="https://vecta.io/nano"><defs><path d="M124 144.611V163h4 0c39.765 0 72 32.235 72 72v9H0v-9c0-39.765 32.235-72 72-72h0 4v-18.389c-17.237-8.189-29.628-24.924-31.695-44.73C38.48 99.058 34 94.052 34 88V74c0-5.946 4.325-10.882 10-11.834V56h0c0-30.928 25.072-56 56-56h0 0c30.928 0 56 25.072 56 56v6.166c5.675.952 10 5.888 10 11.834v14c0 6.052-4.48 11.058-10.305 11.881-2.067 19.806-14.457 36.541-31.695 44.73z" id="A"/></defs><g mask="url(#react-mask-5)" fill="none" fill-rule="evenodd"><g transform="translate(32 36)"><mask id="B" fill="#fff"><use xlink:href="#A"/></mask><use fill="#d0c6ac" xlink:href="#A"/><g mask="url(#B)" fill="#ffdbb4"><path d="M0 0h264v280H0z"/></g><path d="M156 79v23c0 30.928-25.072 56-56 56s-56-25.072-56-56V79v15c0 30.928 25.072 56 56 56s56-25.072 56-56V79z" fill-opacity=".1" fill="#000" mask="url(#B)"/></g><g transform="translate(0 170)"><defs><path d="M165.96 29.295c36.976 3.03 66.04 33.999 66.04 71.757V110H32v-8.948c0-38.099 29.592-69.287 67.045-71.832A14.02 14.02 0 0 0 99 30.348c0 11.863 14.998 21.48 33.5 21.48s33.5-9.617 33.5-21.48c0-.353-.013-.704-.04-1.053z" id="C"/></defs><mask id="D" fill="#fff"><use xlink:href="#C"/></mask><use fill="#e6e6e6" xlink:href="#C"/><g mask="url(#D)" fill="#25557c"><path d="M0 0h264v110H0z"/></g><g opacity=".6" mask="url(#D)" fill-opacity=".16" fill="#000"><ellipse cx="132.5" cy="31.848" rx="39.635" ry="26.914"/></g></g><g fill="#000"><g fill-opacity=".7"><path d="M118 149c0 7.732 6.268 14 14 14h0c7.732 0 14-6.268 14-14"/></g><g fill-opacity=".16"><path d="M120 130c0 4.418 5.373 8 12 8h0c6.627 0 12-3.582 12-8"/></g><g fill-opacity=".6"><circle cx="106" cy="112" r="6"/><circle cx="158" cy="112" r="6"/></g><g fill-opacity=".6"><path d="M102.547 88.148c-5.807.268-15.195 4.488-14.953 10.344.008.192.29.276.427.128 2.755-2.959 22.315-5.95 29.205-4.365.631.145 1.11-.477.71-.926-3.422-3.848-10.186-5.426-15.389-5.181m59.906 0c5.807.268 15.195 4.488 14.953 10.344-.008.192-.29.276-.427.128-2.755-2.959-22.315-5.95-29.205-4.365-.631.145-1.11-.477-.71-.926 3.422-3.848 10.186-5.426 15.389-5.181"/></g></g><defs><path id="E" d="M0 0h264v280H0z"/><path d="M183.68 38.949c5.406-4.95 6.708-14.987 3.638-21.499-3.768-7.995-11.416-8.997-18.745-5.481-6.908 3.315-13.057 4.419-20.622 2.813-7.259-1.541-14.145-4.259-21.647-4.705-12.325-.733-24.3 3.838-32.7 13.053-1.603 1.758-2.894 3.768-4.115 5.805-.977 1.63-2.078 3.379-2.493 5.258-.198.893.17 3.098-.275 3.83-.481.79-2.296 1.515-3.069 2.102-1.567 1.189-2.924 2.53-4.18 4.047-2.666 3.222-4.134 6.587-5.368 10.572-4.103 13.245-4.451 28.998.853 42.004.707 1.734 2.898 5.352 4.186 1.638.255-.734-.335-3.194-.333-3.935.005-2.72 1.506-20.729 8.047-30.817 2.129-3.284 11.973-15.581 13.983-15.679 1.065 1.693 11.88 12.509 39.943 11.241 12.662-.572 22.399-6.261 24.737-8.727 1.029 5.533 12.992 13.816 14.815 17.224 5.266 9.845 6.434 30.304 8.445 30.265s3.453-5.238 3.867-6.23c3.072-7.375 3.595-16.632 3.267-24.559-.427-10.202-4.638-21.226-12.235-28.22z" id="F"/></defs><mask id="G" fill="#fff"><use xlink:href="#E"/></mask><g mask="url(#G)"><g transform="translate(-1)"><mask id="H" fill="#fff"><use xlink:href="#F"/></mask><use fill="#28354b" xlink:href="#F"/><g mask="url(#H)" fill="#a55728"><path d="M0 0h264v280H0z"/></g></g></g></g></svg>
